X:541
T:The Northern Lass
S:Colin Hume's website,  colinhume.com  - chords can also be printed below the stave.
Q:3/8=112
M:6/8
K:Em
P:A
|: B, | "Em"E2F G2A | "G"B>cB d3 | "D"AFA d2B | "B7/D#"A2G FE^D |\
"Em"E2F G2A | "/"B>cB e2f | "C"g>fe "B7"B2^d | "Em"e3- e2 :|
P:B
|: d | "D"def "G"g2d | "G"g2d B2G | "B7"B^c^d "Em"e2B | "Em"e2B G2E |\
"C"GAB "Am"c3 | "B7"B3 A3 | "Em"G2E "B7"^D^CD | "Em"E3- E2 :|

